X: 40506
T: Tommy Darling
R: reel
M: 4/4
K: Gmajor
|:D2|G2DG BDGB|d>cBc A2D2|F2DF AcBc|e>d^cd B2 B/=c/B/A/|
G2DG Bgfg|a>gec A2fe|de/d/^cd =cDFA|G2G/A/G/F/ G2:|
|:Bc|de/d/Bd bgdB|fAABc2AB|c2Ac afdc|cBBc d2Bc|
d2efg2b2|a>gecA2fe|de/d/^cd =cDFA|G2 G/A/G/F/ G2:|

